X:96
T:Mrs. McGhee
M:6/8
R:J
F:http://blackrosetheband.googlepages.com/ABCTUNES.ABC May 2009
S:Altan: Island Angel
C:Mike McDougall
K:G
|:G2G BGB|dBG Ge=f|cA=F FEF|c2d cBA|
G2G B2B|dBG Ge=f|cBc edc|dBG G2D:|
|GBd gab|agf g2B|cA=F FEF|c2d cBA|
GBd gab|agf g2B|cBc edc|dBG G2D|
GBd gab|agf g2B|cA=F FEF|c2d cga|
bgb afa|gfe d2B|cBc edc|dBG G2D||
